js30#1.3-custom-video/assets/svg/volume.svg

<!-- Generated by IcoMoon.io -->
<svg version="1.1" xmlns="http://www.w3.org/2000/svg" width="36" height="36" viewBox="0 0 36 36">
<title>volume</title>
<path fill="#b3b3b3" d="M17.995 2.95c-0.429 0-0.801 0.157-1.115 0.471l-8.248 8.248h-6.489c-0.43 0-0.801 0.157-1.115 0.471s-0.471 0.686-0.471 1.115v9.51c0 0.429 0.157 0.801 0.471 1.115s0.686 0.471 1.115 0.471h6.489l8.248 8.248c0.314 0.314 0.685 0.471 1.115 0.471s0.801-0.157 1.115-0.471 0.471-0.685 0.471-1.115v-26.948c0-0.429-0.157-0.801-0.47-1.115s-0.685-0.471-1.115-0.471z"></path>
<path fill="#b3b3b3" d="M28.040 21.515c0.702-1.081 1.053-2.249 1.053-3.505s-0.351-2.428-1.053-3.518c-0.702-1.090-1.63-1.858-2.787-2.304-0.165-0.082-0.372-0.124-0.619-0.124-0.429 0-0.801 0.153-1.115 0.458-0.314 0.307-0.471 0.681-0.471 1.127 0 0.347 0.099 0.64 0.298 0.879s0.437 0.446 0.718 0.619c0.28 0.173 0.561 0.363 0.842 0.57s0.52 0.499 0.718 0.879c0.198 0.38 0.297 0.851 0.297 1.412s-0.099 1.032-0.297 1.412c-0.198 0.38-0.437 0.673-0.718 0.879s-0.562 0.397-0.842 0.57c-0.281 0.173-0.52 0.38-0.718 0.619s-0.298 0.533-0.298 0.879c0 0.446 0.158 0.821 0.471 1.127 0.314 0.304 0.685 0.459 1.115 0.459 0.247 0 0.454-0.041 0.619-0.124 1.156-0.463 2.085-1.235 2.787-2.317z"></path>
<path fill="#b3b3b3" d="M33.327 25.008c1.404-2.137 2.106-4.471 2.106-6.999 0-2.527-0.702-4.859-2.106-6.999-1.404-2.137-3.262-3.695-5.573-4.669-0.214-0.082-0.429-0.124-0.644-0.124-0.429 0-0.801 0.157-1.115 0.471s-0.47 0.685-0.47 1.115c0 0.644 0.322 1.131 0.966 1.462 0.924 0.479 1.552 0.842 1.882 1.090 1.222 0.892 2.176 2.010 2.861 3.356s1.028 2.778 1.028 4.299c0 1.519-0.343 2.952-1.028 4.299-0.685 1.346-1.639 2.464-2.861 3.356-0.33 0.248-0.958 0.611-1.882 1.090-0.644 0.331-0.966 0.817-0.966 1.462 0 0.429 0.157 0.801 0.47 1.115s0.693 0.471 1.139 0.471c0.198 0 0.405-0.042 0.619-0.124 2.311-0.975 4.17-2.531 5.573-4.67z"></path>
</svg>

<svg width="36" height="36" viewBox="0 0 36 36" fill="none" xmlns="http://www.w3.org/2000/svg">
<path d="M17.995 2.95C17.566 2.95 17.194 3.107 16.88 3.421L8.63201 11.669H2.14301C1.71301 11.669 1.34201 11.826 1.02801 12.14C0.714007 12.454 0.557007 12.826 0.557007 13.255V22.765C0.557007 23.194 0.714007 23.566 1.02801 23.88C1.34201 24.194 1.71401 24.351 2.14301 24.351H8.63201L16.88 32.599C17.194 32.913 17.565 33.07 17.995 33.07C18.425 33.07 18.796 32.913 19.11 32.599C19.424 32.285 19.581 31.914 19.581 31.484V4.536C19.581 4.107 19.424 3.735 19.111 3.421C18.798 3.107 18.426 2.95 17.996 2.95H17.995Z" fill="white"/>
<path d="M28.04 21.515C28.742 20.434 29.093 19.266 29.093 18.01C29.093 16.754 28.742 15.582 28.04 14.492C27.338 13.402 26.41 12.634 25.253 12.188C25.088 12.106 24.881 12.064 24.634 12.064C24.205 12.064 23.833 12.217 23.519 12.522C23.205 12.829 23.048 13.203 23.048 13.649C23.048 13.996 23.147 14.289 23.346 14.528C23.545 14.767 23.783 14.974 24.064 15.147C24.344 15.32 24.625 15.51 24.906 15.717C25.187 15.924 25.426 16.216 25.624 16.596C25.822 16.976 25.921 17.447 25.921 18.008C25.921 18.569 25.822 19.04 25.624 19.42C25.426 19.8 25.187 20.093 24.906 20.299C24.625 20.505 24.344 20.696 24.064 20.869C23.783 21.042 23.544 21.249 23.346 21.488C23.148 21.727 23.048 22.021 23.048 22.367C23.048 22.813 23.206 23.188 23.519 23.494C23.833 23.798 24.204 23.953 24.634 23.953C24.881 23.953 25.088 23.912 25.253 23.829C26.409 23.366 27.338 22.594 28.04 21.512V21.515Z" fill="white"/>
<path d="M33.327 25.008C34.731 22.871 35.433 20.537 35.433 18.009C35.433 15.482 34.731 13.15 33.327 11.01C31.923 8.873 30.065 7.315 27.754 6.341C27.54 6.259 27.325 6.217 27.11 6.217C26.681 6.217 26.309 6.374 25.995 6.688C25.681 7.002 25.525 7.373 25.525 7.803C25.525 8.447 25.847 8.934 26.491 9.265C27.415 9.744 28.043 10.107 28.373 10.355C29.595 11.247 30.549 12.365 31.234 13.711C31.919 15.057 32.262 16.489 32.262 18.01C32.262 19.529 31.919 20.962 31.234 22.309C30.549 23.655 29.595 24.773 28.373 25.665C28.043 25.913 27.415 26.276 26.491 26.755C25.847 27.086 25.525 27.572 25.525 28.217C25.525 28.646 25.682 29.018 25.995 29.332C26.308 29.646 26.688 29.803 27.134 29.803C27.332 29.803 27.539 29.761 27.753 29.679C30.064 28.704 31.923 27.148 33.326 25.009L33.327 25.008Z" fill="white"/>
</svg>
